X:1
T: The Laird of Atherton
C:
R:Strathspey
Q: 128
K:G
M:4/4
L:1/16
|:B3c|d4 g3e dB3 B3c|d3B A3B GE3 E3G|D3E G3A B3A Bd3|eg3 d3B BA3 A2Bc|
d4 g3e dB3 B3c|d3B A3B GE3 E3G|D3E G3A B3A Bd3|eg3 d3B BA3 AB3|
G4 EG3 A4 Bd3|e3f g3f e3d eg3|G4 EG3 A4 Bd3|g3e dB3 BA3 AB3|
G4 EG3 A4 Bd3|e3d eg3 a4 g3a|b3a g3e d3e gB3|EA3 A3F G4:|
